X: 27
% Old value - X: 1
T: Tar Road To Sligo
R:jig
M:6/8
L:1/8
Q:120
K:D
|:e|"Bm"fdB Bcd|"A"ecA BAG|"D"FGA ABc|"G"dcd "A"efg|
"Bm"fdB Bcd|"A"ecA BAG|"D"FGA Aag|1"A"fdc "D"d2:|2"A"fdc "D"d2||
|:B|"D"Adf Adf|"G"gfg "A"efg|"D"afd dcd|"G"Bed "A"cBA|
[1 "D"Adf Adf|"G"gfg "A"efg|"D"afd "G"bge|"A"edc "D"d2:|
[2 "Bm"fdB "G"gec|"A"~a3 "Em"bge|"D"~a3 "G"bge|"A"edc "D"d2||



